X:1
T:Chalvey, SMD
T:Chalvey, SMD
T:Leighton George Hayne, 1868
T:Public Domain Courtesy of the Cyber Hymnal™
C:Leighton George Hayne, 1868
Z:Public Domain
Z:Courtesy of the Cyber Hymnal™
%%score ( 1 2 ) ( 3 4 )
L:1/8
Q:1/4=115
M:4/4
K:F
V:1 treble 
V:2 treble 
V:3 bass 
V:4 bass 
V:1
 [Fc]2 | [Fd]2 [Fc]2 [Ec]2 [EG]2 | [DB]6 [^CA]2 | [DA]2 [DG]2 [DG]2 D2 | [CE]6 [EG]2 | %5
 [Cc]2 [F=B]2 [Ec]2 [Fd]2 | [Ee]2 [F=B]2 [Ec]2 [Cc]2 | [Ec]2 [Fd]2 [D=B]3 [Ec] | [Ec]6 [_Ec]2 | %9
 [DB]2 [DA]2 [CA]2 [DB]2 | [B,G]6 [DB]2 | [EA]2 [EG]2 [EG]2 [EA]2 | F6 [FB]2 | %13
 [EB]2 [EA]2 [DG]2 [Ed]2 | [Fd]2 [Fc]2 F2 [FB]2 | [EB]2 [EA]2 A3 z G | F6 |] %17
V:2
 x2 | x8 | x8 | x6 D2 | x8 | x8 | x8 | x8 | x8 | x8 | x8 | x8 | F6 x2 | x8 | x4 F2 x2 | %15
 x4 E2 E2 x | F6 |] %17
V:3
 [F,A,]2 | [B,,B,]2 [F,A,]2 [C,G,]2 [C,C]2 | [G,,B,]6 [A,,E,]2 | %3
 [B,,D,]2 [B,,B,]2 [G,,B,]2 [G,,B,]2 | [C,G,]6 [C,G,]2 | [E,G,]2 [D,G,]2 [C,G,]2 [=B,,G,]2 | %6
 [C,G,]2 [D,F,]2 [E,G,]2 [F,A,]2 | G,2 G,2 [G,,G,]2 [G,,G,]2 | [C,G,]6 [C,G,]2 | %9
 [D,G,]2 [D,^F,]2 [D,F,]2 [D,F,]2 | G,6 [G,,G,]2 | [C,B,]2 [C,B,]2 [C,B,]2 [C,C]2 | %12
 [F,A,]6 [D,B,]2 | [C,C]2 [C,C]2 [B,,D]2 [B,,G,]2 | [A,,A,]2 [A,,A,]2 [D,A,]2 [G,,D]2 | %15
 [C,C]2 [C,C]2 [C,B,]2 [C,B,]2 x | [F,A,]6 |] %17
V:4
 x2 | x8 | x8 | x8 | x8 | x8 | x8 | G,2 G,2 x4 | x8 | x8 | G,6 x2 | x8 | x8 | x8 | x8 | x9 | x6 |] %17

